projects/vfh1/img/icons-service/ph_sun-fill.svg

<svg width="25" height="25" viewBox="0 0 25 25" fill="none" xmlns="http://www.w3.org/2000/svg">
<path d="M6 23C5.45 23 4.97933 22.8043 4.588 22.413C4.196 22.021 4 21.55 4 21V9C4 8.45 4.196 7.97933 4.588 7.588C4.97933 7.196 5.45 7 6 7H8C8 5.9 8.39167 4.95833 9.175 4.175C9.95833 3.39167 10.9 3 12 3C13.1 3 14.0417 3.39167 14.825 4.175C15.6083 4.95833 16 5.9 16 7H18C18.55 7 19.021 7.196 19.413 7.588C19.8043 7.97933 20 8.45 20 9V21C20 21.55 19.8043 22.021 19.413 22.413C19.021 22.8043 18.55 23 18 23H6ZM9 12C9.28333 12 9.521 11.904 9.713 11.712C9.90433 11.5207 10 11.2833 10 11V9H8V11C8 11.2833 8.096 11.5207 8.288 11.712C8.47933 11.904 8.71667 12 9 12ZM10 7H14C14 6.45 13.8043 5.97933 13.413 5.588C13.021 5.196 12.55 5 12 5C11.45 5 10.9793 5.196 10.588 5.588C10.196 5.97933 10 6.45 10 7ZM15 12C15.2833 12 15.521 11.904 15.713 11.712C15.9043 11.5207 16 11.2833 16 11V9H14V11C14 11.2833 14.096 11.5207 14.288 11.712C14.4793 11.904 14.7167 12 15 12Z" fill="#42474D"/>
</svg>

<svg width="25" height="25" fill="none" xmlns="http://www.w3.org/2000/svg"><path d="M6 23c-.55 0-1.02-.196-1.412-.587A1.927 1.927 0 014 21V9c0-.55.196-1.02.588-1.412A1.923 1.923 0 016 7h2c0-1.1.392-2.042 1.175-2.825C9.958 3.392 10.9 3 12 3s2.042.392 2.825 1.175C15.608 4.958 16 5.9 16 7h2c.55 0 1.021.196 1.413.588.391.391.587.862.587 1.412v12a1.93 1.93 0 01-.587 1.413A1.928 1.928 0 0118 23H6zm3-11a.968.968 0 00.713-.288A.967.967 0 0010 11V9H8v2c0 .283.096.52.288.712A.965.965 0 009 12zm1-5h4c0-.55-.196-1.02-.587-1.412A1.927 1.927 0 0012 5c-.55 0-1.02.196-1.412.588A1.923 1.923 0 0010 7zm5 5a.968.968 0 00.713-.288A.967.967 0 0016 11V9h-2v2c0 .283.096.52.288.712A.965.965 0 0015 12z" fill="#42474D"/></svg>
